packages/katcn/src/icons/svg/money.svg

<svg width="24" height="24" viewBox="0 0 24 24" fill="none" xmlns="http://www.w3.org/2000/svg">
<path d="M16.4 20.1H3.6C2.2 20.1 1 18.9 1 17.5V10.2C1 8.8 2.2 7.6 3.6 7.6H16.4C17.8 7.6 19 8.8 19 10.2V17.5C19 18.9 17.8 20.1 16.4 20.1ZM3.6 9.6C3.3 9.6 3 9.9 3 10.2V17.5C3 17.8 3.3 18.1 3.6 18.1H16.4C16.7 18.1 17 17.8 17 17.5V10.2C17 9.9 16.7 9.6 16.4 9.6H3.6Z" fill="black"/>
<path d="M22 16.1C21.4 16.1 21 15.7 21 15.1V6.7C21 6.3 20.8 6 20.5 6H5.09998C4.49998 6 4.09998 5.6 4.09998 5C4.09998 4.4 4.49998 4 5.09998 4H20.5C21.9 4 23 5.2 23 6.7V15.1C23 15.6 22.6 16.1 22 16.1Z" fill="black"/>
<path d="M9.99999 17C8.19999 17 6.79999 15.6 6.79999 13.8C6.79999 12 8.19999 10.6 9.99999 10.6C11.8 10.6 13.2 12 13.2 13.8C13.2 15.6 11.8 17 9.99999 17ZM9.99999 12.7C9.29999 12.7 8.79999 13.2 8.79999 13.9C8.79999 14.6 9.29999 15 9.99999 15C10.7 15 11.2 14.5 11.2 13.8C11.2 13.1 10.7 12.7 9.99999 12.7Z" fill="black"/>
<path d="M4.90001 14.5C5.28661 14.5 5.60001 14.1866 5.60001 13.8C5.60001 13.4134 5.28661 13.1 4.90001 13.1C4.51341 13.1 4.20001 13.4134 4.20001 13.8C4.20001 14.1866 4.51341 14.5 4.90001 14.5Z" fill="black"/>
<path d="M15.1 14.5C15.4866 14.5 15.8 14.1866 15.8 13.8C15.8 13.4134 15.4866 13.1 15.1 13.1C14.7134 13.1 14.4 13.4134 14.4 13.8C14.4 14.1866 14.7134 14.5 15.1 14.5Z" fill="black"/>
</svg>

<svg xmlns="http://www.w3.org/2000/svg" fill="none" viewBox="0 0 24 24"><path fill="#000" d="M16.4 20.1H3.6c-1.4 0-2.6-1.2-2.6-2.6v-7.3c0-1.4 1.2-2.6 2.6-2.6h12.8c1.4 0 2.6 1.2 2.6 2.6v7.3c0 1.4-1.2 2.6-2.6 2.6M3.6 9.6c-.3 0-.6.3-.6.6v7.3c0 .3.3.6.6.6h12.8c.3 0 .6-.3.6-.6v-7.3c0-.3-.3-.6-.6-.6z"/><path fill="#000" d="M22 16.1c-.6 0-1-.4-1-1V6.7c0-.4-.2-.7-.5-.7H5.1c-.6 0-1-.4-1-1s.4-1 1-1h15.4C21.9 4 23 5.2 23 6.7v8.4c0 .5-.4 1-1 1M10 17c-1.8 0-3.2-1.4-3.2-3.2s1.4-3.2 3.2-3.2 3.2 1.4 3.2 3.2S11.8 17 10 17m0-4.3c-.7 0-1.2.5-1.2 1.2S9.3 15 10 15s1.2-.5 1.2-1.2-.5-1.1-1.2-1.1m-5.1 1.8a.7.7 0 1 0 0-1.4.7.7 0 0 0 0 1.4m10.2 0a.7.7 0 1 0 0-1.4.7.7 0 0 0 0 1.4"/></svg>
